X:216
T: WAS KANN UNS WOHL MEHR ERFREUEN
N: E1355
O: Europa, Mitteleuropa, Deutschland, Schleswig, West - Kueste
R: Staende -, Soldaten -, Kriegs - Lied
M: 3/4
L: 1/8
K: G
D2 | G3FG2 | G2e2d2 | B2G2
B2 | d3cB2 | A3Bc2 | d4
Bc | d2d2ed | c2c2dc | B2B2
cB | A2c2BA | G4B2 | D4
B2 | c3de2 | d3cA2 | G4
Bc | d2d2ed | c2c2dc | B2B2
cB | A2c2BA | G4B2 | D4
B2 | c3de2 | d3cA2 | G4

